!!!OTL: "Der wunderliche Kittel" ICH WOLLTE MIR EINEN KITTEL NAEHEN
!!!ARE: Europa, Mitteleuropa, Deutschland, Westfalen
!!!SCT: Z1371
!!!YEM: Copyright 1995, estate of Helmut Schaffrath.
**kern
*ICvox
*Ivox
*M6/8
*k[f#]
*G:
{8d
=1
4d
8g
8g
8a
8b
=2
4b
8d
4d}
{8d
=3
4b
8g
8g
8f#
8g
=4
4a
8f#
4d}
{8d
=5
4d
8g
8g
8a
8b
=6
8b
8a
8a
4a}
{8cc
=7
8b
8a
8b
8b
8cc
8dd
=8
8dd
8cc
8b
4a
8r}
=9
{4b
8g
8g
8f#
8g
=10
4a
8f#
4d
8r}
=11
{8d
8g
8g
4g
8r}
=12
{4g
8b
8dd
8cc
8b
=13
8a
8a
8f#
4.g}
=14
{8d
8g
8g
8g
8g
8g
=15
8g
8g
8g
8g
8g
8g}
=16
{4g
8b
8dd
8cc
8b
=17
8a
8a
8f#
4g}
==
!!!AGN: Kinder - Lied
!!!ONB: ESAC (Essen Associative Code) Database: ZUCCAL
!!!AMT: compound duple
!!!AIN: vox
!!!EED: Helmut Schaffrath
!!!EEV: 1.0
*-
